pitch-roulette/src/img/control_icon/down.svg

<svg width="13" height="8" viewBox="0 0 13 8" fill="none" xmlns="http://www.w3.org/2000/svg">
<path d="M10.7912 0.582087L6.68666 4.61781L2.59417 0.591583C2.36962 0.370805 2.00745 0.370805 1.78291 0.591583L0.887148 1.47232C0.662604 1.6931 0.662604 2.04919 0.887148 2.26997L6.28345 7.57577C6.50799 7.79654 6.87016 7.79654 7.0947 7.57577L12.4982 2.26048C12.7228 2.0397 12.7228 1.68123 12.4982 1.46045L11.6049 0.582087C11.3804 0.361309 11.0158 0.361309 10.7912 0.582087Z" fill="white"/>
</svg>

<svg width="13" height="8" fill="none" xmlns="http://www.w3.org/2000/svg"><path d="M10.791.582 6.687 4.618 2.594.592a.58.58 0 0 0-.811 0l-.896.88a.556.556 0 0 0 0 .798l5.396 5.306a.58.58 0 0 0 .812 0l5.403-5.316a.56.56 0 0 0 0-.8l-.893-.878a.583.583 0 0 0-.814 0z" fill="#fff"/></svg>
